source/img/logo--html-academy.svg

<svg fill="none" height="34" viewBox="0 0 27 34" width="27" xmlns="http://www.w3.org/2000/svg"><path d="m13.6426.0157537-.1426-.0157537-13.5 1.40733v24.60557l13.5 7.9871 13.5-7.9871v-24.60557zm11.5918 24.9993463-11.7344 6.9422-11.73439-6.9422v-10.0858l11.68509 6.9158.0194 1.2533-8.01659-4.7436-.01056 1.2253 8.04645 4.8084.0194 1.2865-8.04472-4.7576-.01057 1.2253 8.04649 4.8084 8.1239-4.8329v-1.2253-3.9839l3.6193-2.1495zm0-11.5632-3.2197 1.88-1.4822.8752-7.0659-4.187-.0106 1.2253 6.0397 3.5726-.0528.0315-.1303.0752-.859.4919-4.987-2.9477-.0106 1.2253 3.9361 2.328-.933.6092-.0211.0122-2.9714-1.7416-.0106 1.2253 1.9469 1.1342-1.9874 1.1868-11.6182-6.8721 11.6376-6.95789zm0-1.2253-11.7943-6.91585-11.67449 6.90885v-9.2299l11.73439-1.22528 11.7344 1.22528z" fill="#d22856"/></svg>

<svg fill="none" height="34" width="27" xmlns="http://www.w3.org/2000/svg"><path d="M13.64.02L13.5 0 0 1.4v24.61L13.5 34 27 26.01V1.41zm11.6 25L13.5 31.96 1.77 25.02v-10.1l11.68 6.93.02 1.25-8.02-4.75v1.23l8.04 4.8.02 1.3-8.05-4.76v1.22l8.04 4.81 8.12-4.83V16.9l3.62-2.15zm0-11.57L22 15.33l-1.48.88-7.06-4.19-.01 1.23 6.04 3.57-.06.03-.13.07-.86.5-4.98-2.95-.01 1.22 3.93 2.33-.93.61-.02.01-2.97-1.74-.01 1.23 1.94 1.13-1.98 1.19L1.8 13.58l11.63-6.96zm0-1.22L13.43 5.3 1.77 12.22V2.99L13.5 1.76 25.23 3z" fill="#d22856"/></svg>
